release/img/icons/cart_empty.svg

<svg width="12" height="12" viewBox="0 0 12 12" fill="none" xmlns="http://www.w3.org/2000/svg">
<path d="M3.57143 9.6C2.91667 9.6 2.3869 10.14 2.3869 10.8C2.3869 11.46 2.91667 12 3.57143 12C4.22619 12 4.7619 11.46 4.7619 10.8C4.7619 10.14 4.22619 9.6 3.57143 9.6ZM9.52381 9.6C8.86905 9.6 8.33929 10.14 8.33929 10.8C8.33929 11.46 8.86905 12 9.52381 12C10.1786 12 10.7143 11.46 10.7143 10.8C10.7143 10.14 10.1786 9.6 9.52381 9.6ZM3.67262 7.65L3.69048 7.578L4.22619 6.6H8.66071C9.10714 6.6 9.5 6.354 9.70238 5.982L12 1.776L10.9643 1.2H10.9583L10.3036 2.4L8.66071 5.4H4.48214L4.40476 5.238L3.07143 2.4L2.50595 1.2L1.94643 0H0V1.2H1.19048L3.33333 5.754L2.52976 7.224C2.43452 7.392 2.38095 7.59 2.38095 7.8C2.38095 8.46 2.91667 9 3.57143 9H10.7143V7.8H3.82143C3.74405 7.8 3.67262 7.734 3.67262 7.65Z" fill="white"/>
</svg>

<svg width="12" height="12" fill="none" xmlns="http://www.w3.org/2000/svg"><path d="M3.571 9.6c-.654 0-1.184.54-1.184 1.2 0 .66.53 1.2 1.184 1.2.655 0 1.19-.54 1.19-1.2 0-.66-.535-1.2-1.19-1.2zm5.953 0c-.655 0-1.185.54-1.185 1.2 0 .66.53 1.2 1.185 1.2s1.19-.54 1.19-1.2c0-.66-.535-1.2-1.19-1.2zM3.673 7.65l.017-.072.536-.978h4.435c.446 0 .839-.246 1.041-.618L12 1.776 10.964 1.2h-.006l-.654 1.2-1.643 3H4.482l-.077-.162L3.07 2.4l-.565-1.2-.56-1.2H0v1.2h1.19l2.143 4.554-.803 1.47A1.199 1.199 0 003.572 9h7.142V7.8H3.821a.152.152 0 01-.148-.15z" fill="#fff"/></svg>
